!!!OTL: Die Königskinder (16a)
!!!id: T0126
**kern
*clefG2
*k[]
*a:
{8e
=1
8a
8a
8b
8cc
8b
8a
=2
4b
16a
16b
4a}
=3
{8dd
=4
8cc
8b
8a
8b
8a
8g#
=5
2a}
8r
=6
{8g
=7
8cc
8cc
8cc
8dd
8dd
8dd
=8
4.ee
8ee
8dd}
=9
{8cc
=10
8b
8a
8b
8dd
8cc
8b
=11
2a}
8r
=12
{8g
=13
8cc
8cc
8cc
8dd
8dd
8dd
=14
4.ee
8ee
8dd}
=15
{8cc
=16
8b
8a
8b
8dd
8cc
8b
=17
2a}
8r
==
*-
!!!minrhy: 16
!!!meters: 6/8 ]  ZZ[6
!!!cut1: Die Königskinder (16a)
!!!cut2: Melodie I, S. 71
!!!reg: Luxemburg
!!!trd: Singendes Volk, Esch-Alzette 1937 posth.
!!!rhy1: X_  X_X_X_X_X_X_  X__XXX__
!!!rhy2: X_  X_X_X_X_X_X_  X___0_
!!!key: T0126  16  A 6/8 ]  ZZ[6
!!!mod: HEPTATONIK MOLL ?]  AMBITUS[8
!!!kad: 114141
!!!akz: 13b21_3b211_3b455_2411_3b455_2411_
!!!fot: 'a__b__c__d__c__d__
!!!for: 'a__aw_aw_aw_aw_aw_
!!!fok: '^a_\__/__Sd_/__Sd_
!! PHRAS[AUFTAKTIG]
!!!fkt: Liebeslieder
!!!bem1: Junglinster, fff Susanna Minden (gelernt von Katarina Bofferding-Nilles),
!!!bem2: 932
!! THILL, Mathias:
!! PR[42] 2K[0] 2G[6] 3K[4] 3G[0] 4A[0] 4Ü[0] 5A[4] 6K[0] 6G[6]
!! 7K[4] 7G[0] 8A[0] MEHR[0] SI[23] ABS[52] SR[6] SP[17]
!! ST[12] 2k[4] 2g[19] 3k[0] 3g[0] 4d[2] 4ü[0] 5d[2] 6k[4] 6g[4]
!! 7k[0] 7g[0] 8d[0] mehr[0] si[35] dm[-12] sr[23] sp[12]
!! 1F[77] 2F[18] 3F[0] 4F[0] LF[0] 2P[5] 3P[0] 4P[0] TRI[0] DF[3] AB[56]
!! TF[0] U3K[0] U3[0] U4[0] U4Ü[0] U5[23] U6K[0] U6[13] U7K[0] U7[0]
!! N1[4] N2K[0] N2[15] N3K[0] N3[26] N4[8] N4Ü[0] N5[11] N6K[0] N6[0]
!!!n7k: 0] N7[0] O1[0] O2K[0] O2[0] O3K[0] O3[0] HÖ[0
